static/assets/template/assets/img/icons/clothing/rain-coat.svg

<svg viewBox="0 0 118.79 112" xmlns="http://www.w3.org/2000/svg"><path d="m114.11 48.07-32.37-35.28a2.5 2.5 0 0 0 -1-.78c-.92-.41-1.93-.81-3.09-1.23a41.59 41.59 0 0 0 -4.29-1.27l-.86-.19-10.66 10.68.13.13-.54.54v55.33h-2v-55.33l-.54-.54.11-.13-10.66-10.68c-1 .22-2 .44-2.83.65-1.45.37-2.77.75-3.78 1.1-1.61.51-2.54.91-2.58.92a2.47 2.47 0 0 0 -.82.57l-33.64 35.11a2.65 2.65 0 0 0 0 3.65l10.85 11.22a2.35 2.35 0 0 0 1.63.77h.14a2.47 2.47 0 0 0 1.78-.77l16.56-17.39-3.77 55.19a2.57 2.57 0 0 0 2 2.73l21.29 4.86a2.64 2.64 0 0 0 .55.06 2.51 2.51 0 0 0 2.3-1.58l2-5 1.7 4.75a2.51 2.51 0 0 0 2.28 1.72 2.31 2.31 0 0 0 .52-.06l21.67-4.75a2.56 2.56 0 0 0 2-2.73l-3.73-54.55 15.15 17a2.52 2.52 0 0 0 1.79.83h.07a2.47 2.47 0 0 0 1.75-.76l10.85-11.22a2.65 2.65 0 0 0 .04-3.57zm-46.78-44.07h-13.91a4 4 0 0 0 -3.94 3.63l11 11 10.8-10.89a4 4 0 0 0 -3.95-3.74zm49.59 50.47-10.85 11.22a6.45 6.45 0 0 1 -4.6 2h-.15a6.45 6.45 0 0 1 -4.67-2.16l-7.43-8.36 2.92 42.83a6.58 6.58 0 0 1 -5.09 7l-21.64 4.73a5.87 5.87 0 0 1 -1.39.16 6.4 6.4 0 0 1 -4.1-1.5 6.38 6.38 0 0 1 -5.67 1.46l-21.25-4.85a6.6 6.6 0 0 1 -5-6.91l3-44.18-9 9.39a6.46 6.46 0 0 1 -4.46 2h-.32a6.31 6.31 0 0 1 -4.48-2l-10.9-11.19a6.71 6.71 0 0 1 0-9.22l33.62-35.1a6.29 6.29 0 0 1 2.16-1.49c.28-.12 1.28-.53 2.87-1 1.1-.38 2.5-.79 4-1.18l1.25-.3a8 8 0 0 1 7.68-5.82h13.91a8 8 0 0 1 7.67 5.78c1.41.36 2.76.77 4 1.23s2.34.88 3.38 1.34a6.59 6.59 0 0 1 2.38 1.83l32.24 35.17a6.66 6.66 0 0 1 -.08 9.12z" fill-rule="evenodd"/></svg>

<svg xmlns="http://www.w3.org/2000/svg" viewBox="0 0 118.79 112"><defs><style>.cls-1{fill-rule:evenodd;}</style></defs><title>rain-coat</title><g id="Layer_2" data-name="Layer 2"><g id="Layer"><path class="cls-1" d="M114.11,48.07,81.74,12.79a2.5,2.5,0,0,0-1-.78c-.92-.41-1.93-.81-3.09-1.23a41.59,41.59,0,0,0-4.29-1.27l-.86-.19L61.84,20l.13.13-.54.54V76h-2V20.67l-.54-.54L59,20,48.34,9.32c-1,.22-2,.44-2.83.65-1.45.37-2.77.75-3.78,1.1-1.61.51-2.54.91-2.58.92a2.47,2.47,0,0,0-.82.57L4.69,47.67a2.65,2.65,0,0,0,0,3.65L15.54,62.54a2.35,2.35,0,0,0,1.63.77h.14a2.47,2.47,0,0,0,1.78-.77L35.65,45.15l-3.77,55.19a2.57,2.57,0,0,0,2,2.73l21.29,4.86a2.64,2.64,0,0,0,.55.06,2.51,2.51,0,0,0,2.3-1.58l2-5,1.7,4.75A2.51,2.51,0,0,0,64,107.88a2.31,2.31,0,0,0,.52-.06l21.67-4.75a2.56,2.56,0,0,0,2-2.73L84.46,45.79l15.15,17a2.52,2.52,0,0,0,1.79.83h.07a2.47,2.47,0,0,0,1.75-.76l10.85-11.22A2.65,2.65,0,0,0,114.11,48.07ZM67.33,4H53.42a4,4,0,0,0-3.94,3.63l11,11L71.28,7.74A4,4,0,0,0,67.33,4Zm49.59,50.47L106.07,65.69a6.45,6.45,0,0,1-4.6,2h-.15a6.45,6.45,0,0,1-4.67-2.16l-7.43-8.36L92.14,100a6.58,6.58,0,0,1-5.09,7l-21.64,4.73a5.87,5.87,0,0,1-1.39.16,6.4,6.4,0,0,1-4.1-1.5,6.38,6.38,0,0,1-5.67,1.46L33,107a6.6,6.6,0,0,1-5-6.91l3-44.18L22,65.3a6.46,6.46,0,0,1-4.46,2h-.32a6.31,6.31,0,0,1-4.48-2L1.84,54.11a6.71,6.71,0,0,1,0-9.22L35.46,9.79A6.29,6.29,0,0,1,37.62,8.3c.28-.12,1.28-.53,2.87-1,1.1-.38,2.5-.79,4-1.18l1.25-.3A8,8,0,0,1,53.42,0H67.33A8,8,0,0,1,75,5.78c1.41.36,2.76.77,4,1.23s2.34.88,3.38,1.34a6.59,6.59,0,0,1,2.38,1.83L117,45.35A6.66,6.66,0,0,1,116.92,54.47Z"/></g></g></svg>
